X: 30712
T: Oriental, The
R: polka
M: 2/4
K: Ddorian
|:f>e ed|f>e ed|ed/e/ fe|dB Be|
f>e ed|f>e ed|ed/e/ fe|1 d2 de:|2 d2 d2||
K:Dmaj
|:f2 fe|dB BA|Be ed/e/|fe de|
f2 fe|dB BA|Be ef/e/|1 d2 de:|2 d2 d2||

